static/assets/img/icons/theme/shopping/euro.svg

<svg height="24" viewBox="0 0 24 24" width="24" xmlns="http://www.w3.org/2000/svg"><g fill="none" fill-rule="evenodd"><path d="m0 0h24v24h-24z" opacity="0"/><g fill="#000"><path d="m4.3618034 10.2763932.5-1c.08469601-.16939201.25782757-.2763932.44721359-.2763932h9.88196601c.2761424 0 .5.22385763.5.5 0 .07762255-.0180725.15417908-.0527864.2236068l-.5 1c-.084696.169392-.2578276.2763932-.4472136.2763932h-9.88196601c-.27614237 0-.5-.2238576-.5-.5 0-.0776225.01807255-.1541791.05278641-.2236068zm10.2763932 3.4472136-.5 1c-.084696.169392-.2578276.2763932-.4472136.2763932h-8.88196601c-.27614237 0-.5-.2238576-.5-.5 0-.0776225.01807255-.1541791.05278641-.2236068l.5-1c.08469601-.169392.25782757-.2763932.44721359-.2763932h8.88196601c.2761424 0 .5.2238576.5.5 0 .0776225-.0180725.1541791-.0527864.2236068z" opacity=".3"/><path d="m17.369 7.618c-.392002-.53200266-.9029969-.92049878-1.533-1.1655-.6300032-.24500122-1.245997-.3675-1.848-.3675-.7700038 0-1.4699968.1399986-2.1.42-.6300031.2800014-1.1724977.66499755-1.6275 1.155-.45500227.49000245-.80499877 1.06399671-1.05 1.722-.24500122.6580033-.3675 1.3719961-.3675 2.142 0 .8120041.11899881 1.5539966.357 2.226s.5774978 1.2494976 1.0185 1.7325.9694969.8574987 1.5855 1.1235 1.3089962.399 2.079.399c.798004 0 1.5049969-.1574984 2.121-.4725s1.1129981-.7314974 1.491-1.2495l2.121 1.491c-.6580033.8260041-1.4629952 1.4664977-2.415 1.9215s-2.0649936.6825-3.339.6825c-1.1620058 0-2.2294951-.1924981-3.2025-.5775-.97300486-.3850019-1.8094965-.9239965-2.5095-1.617s-1.24599804-1.5189952-1.638-2.478-.588-2.0194942-.588-3.1815c0-1.190006.20649794-2.26449521.6195-3.2235.41300207-.95900479.9799964-1.77449664 1.701-2.4465.72100361-.67200336 1.5714951-1.18999818 2.5515-1.554s2.0439943-.546 3.192-.546c.4760024 0 .9729974.04549954 1.491.1365.5180026.09100045 1.0149976.23099906 1.491.42.4760024.18900095.9239979.4234986 1.344.7035s.7769985.61599804 1.071 1.008z"/></g></g></svg>

<svg width="24px" height="24px" viewBox="0 0 24 24" version="1.1" xmlns="http://www.w3.org/2000/svg" xmlns:xlink="http://www.w3.org/1999/xlink">
    <title>Icon For Euro</title>
    <g stroke="none" stroke-width="1" fill="none" fill-rule="evenodd">
        <rect opacity="0" x="0" y="0" width="24" height="24"></rect>
        <path d="M4.3618034,10.2763932 L4.8618034,9.2763932 C4.94649941,9.10700119 5.11963097,9 5.30901699,9 L15.190983,9 C15.4671254,9 15.690983,9.22385763 15.690983,9.5 C15.690983,9.57762255 15.6729105,9.65417908 15.6381966,9.7236068 L15.1381966,10.7236068 C15.0535006,10.8929988 14.880369,11 14.690983,11 L4.80901699,11 C4.53287462,11 4.30901699,10.7761424 4.30901699,10.5 C4.30901699,10.4223775 4.32708954,10.3458209 4.3618034,10.2763932 Z M14.6381966,13.7236068 L14.1381966,14.7236068 C14.0535006,14.8929988 13.880369,15 13.690983,15 L4.80901699,15 C4.53287462,15 4.30901699,14.7761424 4.30901699,14.5 C4.30901699,14.4223775 4.32708954,14.3458209 4.3618034,14.2763932 L4.8618034,13.2763932 C4.94649941,13.1070012 5.11963097,13 5.30901699,13 L14.190983,13 C14.4671254,13 14.690983,13.2238576 14.690983,13.5 C14.690983,13.5776225 14.6729105,13.6541791 14.6381966,13.7236068 Z" fill="#000000" opacity="0.3"></path>
        <path d="M17.369,7.618 C16.976998,7.08599734 16.4660031,6.69750122 15.836,6.4525 C15.2059968,6.20749878 14.590003,6.085 13.988,6.085 C13.2179962,6.085 12.5180032,6.2249986 11.888,6.505 C11.2579969,6.7850014 10.7155023,7.16999755 10.2605,7.66 C9.80549773,8.15000245 9.45550123,8.72399671 9.2105,9.382 C8.96549878,10.0400033 8.843,10.7539961 8.843,11.524 C8.843,12.3360041 8.96199881,13.0779966 9.2,13.75 C9.43800119,14.4220034 9.7774978,14.9994976 10.2185,15.4825 C10.6595022,15.9655024 11.1879969,16.3399987 11.804,16.606 C12.4200031,16.8720013 13.1129962,17.005 13.883,17.005 C14.681004,17.005 15.3879969,16.8475016 16.004,16.5325 C16.6200031,16.2174984 17.1169981,15.8010026 17.495,15.283 L19.616,16.774 C18.9579967,17.6000041 18.1530048,18.2404977 17.201,18.6955 C16.2489952,19.1505023 15.1360064,19.378 13.862,19.378 C12.6999942,19.378 11.6325049,19.1855019 10.6595,18.8005 C9.68649514,18.4154981 8.8500035,17.8765035 8.15,17.1835 C7.4499965,16.4904965 6.90400196,15.6645048 6.512,14.7055 C6.11999804,13.7464952 5.924,12.6860058 5.924,11.524 C5.924,10.333994 6.13049794,9.25950479 6.5435,8.3005 C6.95650207,7.34149521 7.5234964,6.52600336 8.2445,5.854 C8.96550361,5.18199664 9.8159951,4.66400182 10.796,4.3 C11.7760049,3.93599818 12.8399943,3.754 13.988,3.754 C14.4640024,3.754 14.9609974,3.79949954 15.479,3.8905 C15.9970026,3.98150045 16.4939976,4.12149906 16.97,4.3105 C17.4460024,4.49950095 17.8939979,4.7339986 18.314,5.014 C18.7340021,5.2940014 19.0909985,5.62999804 19.385,6.022 L17.369,7.618 Z" fill="#000000"></path>
    </g>
</svg>
